X: 1
T: Paddy Cronin's
M: 2/4
L: 1/8
R: polka
K: Dmaj
d~c|:BE FE|ec dA|BE FE/F/|AD DA|BE F~E|
ec dA|1 Bd BD|FE E2:|2 Bd BA|Be e~d||
|:Be fe|be fe|Be fe/f/|
[1ad dA|Be fe|be fe|de dc|Be ed:|
[2ad da|bg af|ge fA|Bd BA|Be e>d|
